Newaita-dark/actions/24/kdeconnect.svg

<svg height="24" viewBox="0 0 24 24" width="24" xmlns="http://www.w3.org/2000/svg"><path d="m5.953125 2.171875c-1.097656 0-1.984375.886719-1.984375 1.984375v15.875c0 1.101562.886719 1.988281 1.984375 1.988281h11.90625c1.101563 0 1.984375-.886719 1.984375-1.988281v-15.875c0-1.097656-.882812-1.984375-1.984375-1.984375zm.992187 1.984375h9.921876c.550781 0 .992187.441406.992187.992188v11.90625c0 .550781-.441406.992187-.992187.992187h-9.921876c-.550781 0-.992187-.441406-.992187-.992187v-11.90625c0-.550782.441406-.992188.992187-.992188zm2.976563 15.378906h3.96875c.277344 0 .496094.222656.496094.496094 0 .277344-.21875.5-.496094.5h-3.96875c-.273437 0-.496094-.222656-.496094-.5 0-.273438.222657-.496094.496094-.496094zm0 0" fill="#e0e0e0"/></svg>

<svg xmlns="http://www.w3.org/2000/svg" xmlns:xlink="http://www.w3.org/1999/xlink" width="24px" height="24px" viewBox="0 0 24 24" version="1.1">
<g id="surface1">
     <defs>
  <style id="current-color-scheme" type="text/css">
   .ColorScheme-Text { color:#eeeeee; } .ColorScheme-Highlight { color:#424242; }
  </style>
 </defs>
<path style="fill:currentColor" class="ColorScheme-Text" d="M 5.953125 2.171875 C 4.855469 2.171875 3.96875 3.058594 3.96875 4.15625 L 3.96875 20.03125 C 3.96875 21.132812 4.855469 22.019531 5.953125 22.019531 L 17.859375 22.019531 C 18.960938 22.019531 19.84375 21.132812 19.84375 20.03125 L 19.84375 4.15625 C 19.84375 3.058594 18.960938 2.171875 17.859375 2.171875 Z M 6.945312 4.15625 L 16.867188 4.15625 C 17.417969 4.15625 17.859375 4.597656 17.859375 5.148438 L 17.859375 17.054688 C 17.859375 17.605469 17.417969 18.046875 16.867188 18.046875 L 6.945312 18.046875 C 6.394531 18.046875 5.953125 17.605469 5.953125 17.054688 L 5.953125 5.148438 C 5.953125 4.597656 6.394531 4.15625 6.945312 4.15625 Z M 9.921875 19.535156 L 13.890625 19.535156 C 14.167969 19.535156 14.386719 19.757812 14.386719 20.03125 C 14.386719 20.308594 14.167969 20.53125 13.890625 20.53125 L 9.921875 20.53125 C 9.648438 20.53125 9.425781 20.308594 9.425781 20.03125 C 9.425781 19.757812 9.648438 19.535156 9.921875 19.535156 Z M 9.921875 19.535156 "/>
</g>
</svg>
